X:324
T: DER LIEBSTE BUHLE
N: F0556
O: Europa, Mitteleuropa, Deutschland
R: Studenten -, Trink - Lied
M: 6/8
L: 1/8
K: G
B | B2BBcd | G2GG2
B | A2AAB^c | e3d2
B | B2BBcd | G2GG2
B | A2AAB^c | e3d2
d | d2B^G2E | A2Bc2
c | c2AF2D | G2Bd2
d | e3d3 | c3B2
B | c3A3 | G3z2

